img/call.svg

<svg width="40" height="40" viewBox="0 0 40 40" fill="none" xmlns="http://www.w3.org/2000/svg">
<g id="vuesax/bold/call">
<g id="call">
<path id="Vector" d="M18.4168 24.9167L15.3335 28C14.6835 28.65 13.6502 28.65 12.9835 28.0167C12.8002 27.8334 12.6168 27.6667 12.4335 27.4834C10.7168 25.75 9.16683 23.9334 7.7835 22.0334C6.41683 20.1334 5.31683 18.2334 4.51683 16.35C3.7335 14.45 3.3335 12.6334 3.3335 10.9C3.3335 9.76671 3.5335 8.68337 3.9335 7.68337C4.3335 6.66671 4.96683 5.73337 5.85016 4.90004C6.91683 3.85004 8.0835 3.33337 9.31683 3.33337C9.7835 3.33337 10.2502 3.43337 10.6668 3.63337C11.1002 3.83337 11.4835 4.13337 11.7835 4.56671L15.6502 10.0167C15.9502 10.4334 16.1668 10.8167 16.3168 11.1834C16.4668 11.5334 16.5502 11.8834 16.5502 12.2C16.5502 12.6 16.4335 13 16.2002 13.3834C15.9835 13.7667 15.6668 14.1667 15.2668 14.5667L14.0002 15.8834C13.8168 16.0667 13.7335 16.2834 13.7335 16.55C13.7335 16.6834 13.7502 16.8 13.7835 16.9334C13.8335 17.0667 13.8835 17.1667 13.9168 17.2667C14.2168 17.8167 14.7335 18.5334 15.4668 19.4C16.2168 20.2667 17.0168 21.15 17.8835 22.0334C18.0502 22.2 18.2335 22.3667 18.4002 22.5334C19.0668 23.1834 19.0835 24.25 18.4168 24.9167Z" fill="white"/>
<path id="Vector_2" d="M36.6167 30.55C36.6167 31.0167 36.5333 31.5 36.3667 31.9667C36.3167 32.1 36.2667 32.2334 36.2 32.3667C35.9167 32.9667 35.55 33.5334 35.0667 34.0667C34.25 34.9667 33.35 35.6167 32.3333 36.0334C32.3167 36.0334 32.3 36.05 32.2833 36.05C31.3 36.45 30.2333 36.6667 29.0833 36.6667C27.3833 36.6667 25.5667 36.2667 23.65 35.45C21.7333 34.6334 19.8167 33.5334 17.9167 32.15C17.2667 31.6667 16.6167 31.1834 16 30.6667L21.45 25.2167C21.9167 25.5667 22.3333 25.8334 22.6833 26.0167C22.7667 26.05 22.8667 26.1 22.9833 26.15C23.1167 26.2 23.25 26.2167 23.4 26.2167C23.6833 26.2167 23.9 26.1167 24.0833 25.9334L25.35 24.6834C25.7667 24.2667 26.1667 23.95 26.55 23.75C26.9333 23.5167 27.3167 23.4 27.7333 23.4C28.05 23.4 28.3833 23.4667 28.75 23.6167C29.1167 23.7667 29.5 23.9834 29.9167 24.2667L35.4333 28.1834C35.8667 28.4834 36.1667 28.8334 36.35 29.25C36.5167 29.6667 36.6167 30.0834 36.6167 30.55Z" fill="white"/>
</g>
</g>
</svg>

<svg xmlns="http://www.w3.org/2000/svg" width="40" height="40" fill="none"><g fill="#fff"><path d="M18.417 24.917 15.333 28c-.65.65-1.683.65-2.35.017-.183-.184-.366-.35-.55-.534a47.4 47.4 0 0 1-4.65-5.45c-1.366-1.9-2.466-3.8-3.266-5.683-.784-1.9-1.184-3.717-1.184-5.45 0-1.133.2-2.217.6-3.217.4-1.016 1.034-1.95 1.917-2.783 1.067-1.05 2.234-1.567 3.467-1.567.466 0 .933.1 1.35.3.433.2.816.5 1.117.934l3.866 5.45c.3.416.517.8.667 1.166.15.35.233.7.233 1.017 0 .4-.117.8-.35 1.183-.216.384-.533.784-.933 1.184L14 15.883a.9.9 0 0 0-.267.667c0 .133.017.25.05.383.05.134.1.234.134.334.3.55.816 1.266 1.55 2.133.75.867 1.55 1.75 2.417 2.633.166.167.35.334.516.5a1.67 1.67 0 0 1 .017 2.384M36.617 30.55c0 .467-.084.95-.25 1.417-.05.133-.1.266-.167.4-.283.6-.65 1.166-1.133 1.7-.817.9-1.717 1.55-2.734 1.966-.016 0-.033.017-.05.017a8.4 8.4 0 0 1-3.2.617c-1.7 0-3.516-.4-5.433-1.217s-3.833-1.917-5.733-3.3c-.65-.483-1.3-.967-1.917-1.483l5.45-5.45c.467.35.883.616 1.233.8.084.033.184.083.3.133.134.05.267.067.417.067.283 0 .5-.1.683-.284l1.267-1.25c.417-.416.817-.733 1.2-.933a2.2 2.2 0 0 1 1.183-.35c.317 0 .65.067 1.017.217s.75.366 1.167.65l5.516 3.916c.434.3.734.65.917 1.067.167.417.267.833.267 1.3"/></g></svg>
